!!!OTL: Wer die Trennung hat erfunden (2-29), S. 126
!!!id: K1129
**kern
*clefG2
*k[]
*C:
{8e
8f
=1
4g
4ee
8dd
8cc
=2
8cc
8b
4b}
=3
{8d
8e
=4
4f
8b
8a
8g
8f
=5
2e}
=6
{8e
8f
=7
4g
4gg
8ff
8ee
=8
8ee
8dd
4a}
=9
{8dd
8cc
=10
4b
8ee
8dd
8a
8b
=11
2cc}
=12
{8e
8f
=13
4g
4gg
8ff
8ee
=14
8ee
8dd
4a}
=15
{8dd
8cc
=16
4b
8ee
8dd
8a
8b
=17
2cc}
==
*-
!!!minrhy: 8
!!!meters: 3/4 ]  ZZ[6
!!!cut: Wer die Trennung hat erfunden (2-29), S. 126
!!!reg: Luxemburg
!!!trd: KINTZELE, Guillaume: An der Ucht, Bd. 2, Luxemburg 1927
!!!rhy1: XX  X_X_XX  XXX_
!!!rhy2: XX  X_XXXX  X__
!!!key: K1129  08  C 3/4 ]  ZZ[6
!!!mod: HEPTATONIK IONISCH]  AMBITUS[11
!!!kad: 736+16+1
!!!akz: 5+1_43_5+3_7+1_5+3_7+1_
!!!fot: 'a__b__c__d__c__d__
!!!for: 'a__b__a__b__a__b__
!!!fok: '^a_^a_^a_Vd_^a_Vd_
!! PHRAS[AUFTAKTIG]
!!!fkt: Trennungs-, Abschiedsschmerz
!!!bem: in der Quelle mit einer 2. Stimme versehen
!! KINTZELE
!! PR[16] 2K[3] 2G[14] 3K[7] 3G[7] 4A[7] 4Ü[0] 5A[0] 6K[0] 6G[0]
!! 7K[0] 7G[0] 8A[0] MEHR[0] SI[38] ABS[58] SR[17] SP[21]
!! ST[11] 2k[9] 2g[29] 3k[3] 3g[2] 4d[2] 4ü[0] 5d[2] 6k[0] 6g[0]
!! 7k[0] 7g[0] 8d[0] mehr[0] si[47] dm[-9] sr[38] sp[9]
!! 1F[3] 2F[55] 3F[33] 4F[3] LF[0] 2P[3] 3P[2] 4P[0] TRI[0] DF[6] AB[60]
!! TF[0] U3K[0] U3[0] U4[0] U4Ü[0] U5[5] U6K[0] U6[0] U7K[0] U7[0]
!! N1[19] N2K[0] N2[14] N3K[0] N3[22] N4[12] N4Ü[0] N5[22] N6K[0] N6[5]
!!!n7k: 0] N7[0] O1[2] O2K[0] O2[0] O3K[0] O3[0] HÖ[0
